tools/download-figma-icons/icons/solid/fruit.svg

<svg width="24" height="25" viewBox="0 0 24 25" fill="none" xmlns="http://www.w3.org/2000/svg">
<path fill-rule="evenodd" clip-rule="evenodd" d="M14.0201 17.0503C13.8776 17.1928 13.6901 17.2603 13.5026 17.2603C13.3076 17.2603 13.1044 17.186 12.9626 17.0285C12.6776 16.7278 12.6851 16.2628 12.9769 15.971C13.1801 15.7753 14.0951 14.7185 12.9169 13.2253C12.6551 12.9035 12.7151 12.4303 13.0369 12.1753C13.3676 11.9128 13.8326 11.9728 14.0876 12.2953C15.7594 14.4103 14.7776 16.3303 14.0201 17.0503ZM11.0351 17.0353C10.8844 17.186 10.6901 17.2603 10.4951 17.2603C10.3151 17.2603 10.1276 17.1928 9.98437 17.0503C9.22687 16.3303 8.24512 14.4103 9.91687 12.2953C10.1719 11.9728 10.6451 11.9128 10.9676 12.1753C11.2894 12.4303 11.3494 12.9035 11.0876 13.2253C9.91012 14.7253 10.8326 15.7753 11.0276 15.971C11.3194 16.2628 11.3194 16.7353 11.0351 17.0353ZM21.1369 6.46027C19.3751 5.04277 16.6969 4.89277 13.1944 5.98777C13.3451 5.36527 13.5551 4.57777 13.7269 4.09102C14.0501 3.21277 14.8751 1.93027 14.8819 1.91527C15.1069 1.57027 15.0094 1.10527 14.6576 0.880269C14.3126 0.656019 13.8476 0.753519 13.6226 1.10527C13.5926 1.15027 13.0901 1.93852 12.6776 2.76277C10.8244 0.0702692 7.99762 -0.199731 6.59512 0.0935191C6.37762 0.137769 6.19012 0.281019 6.08512 0.482769C5.97937 0.686019 5.97262 0.917769 6.06262 1.12852C7.47262 4.36777 10.0444 5.23777 11.8219 5.26777C11.7319 5.65027 11.6419 6.00352 11.5901 6.25102C7.69687 4.87852 4.75687 4.93852 2.86762 6.46027C1.09762 7.87852 0.407621 10.496 0.910121 13.8178C1.39762 16.9985 3.12262 21.3553 6.40012 23.1928C8.10187 24.1535 10.0369 24.2653 12.0026 23.5228C12.8569 23.846 13.7126 24.0035 14.5369 24.0035C15.6094 24.0035 16.6451 23.7328 17.6044 23.1928C20.8819 21.3553 22.6069 16.9985 23.0951 13.8178C23.5976 10.496 22.9076 7.87852 21.1369 6.46027Z" fill="black"/>
</svg>

<svg width="24" height="25" viewBox="0 0 24 25" fill="none" xmlns="http://www.w3.org/2000/svg"><path fill-rule="evenodd" clip-rule="evenodd" d="M14.02 17.05a.726.726 0 0 1-.517.21.726.726 0 0 1-.54-.232.754.754 0 0 1 .014-1.057c.203-.196 1.118-1.252-.06-2.746a.744.744 0 0 1 .12-1.05.743.743 0 0 1 1.05.12c1.672 2.115.69 4.035-.067 4.755Zm-2.985-.015a.76.76 0 0 1-.54.225.724.724 0 0 1-.51-.21c-.758-.72-1.74-2.64-.068-4.755a.744.744 0 0 1 1.05-.12.744.744 0 0 1 .12 1.05c-1.177 1.5-.254 2.55-.06 2.746a.763.763 0 0 1 .008 1.064ZM21.137 6.46c-1.762-1.417-4.44-1.567-7.943-.472.151-.623.361-1.41.533-1.897.323-.878 1.148-2.16 1.155-2.176A.745.745 0 0 0 14.658.88a.746.746 0 0 0-1.035.225 20 20 0 0 0-.945 1.658C10.824.07 7.998-.2 6.595.093a.745.745 0 0 0-.51.39.747.747 0 0 0-.022.646c1.41 3.239 3.981 4.109 5.759 4.139-.09.382-.18.736-.232.983-3.893-1.372-6.833-1.312-8.722.21C1.098 7.878.408 10.495.91 13.817c.488 3.18 2.213 7.537 5.49 9.375 1.702.96 3.637 1.072 5.603.33.854.323 1.71.48 2.534.48 1.072 0 2.108-.27 3.067-.81 3.278-1.838 5.003-6.195 5.491-9.375.503-3.322-.187-5.94-1.958-7.358Z" fill="currentColor"/></svg>
